X: 4
T: No_13_Song_of_the_Elk_Soldiers.krn
N: Derived from No_13_Song_of_the_Elk_Soldiers.krn
%%abc-version 2.0
%%abcx-abcm2ps-target-version 5.9.1 (29 Sep 2008)
%%abc-creator hum2abc beta
%%abcx-conversion-date 2019/03/15 08:27:55
%%humdrum-veritas 2603166443
%%humdrum-veritas-data 2865753274
%%linebreak <none>
%%barnumbers 0
L: 1/8
M: 2/4
K: Ab clef=bass
[K:clef=bass][M:2/4]E4 | 
(3ECC C z | 
(3CA,A, A, z | 
(3A,F,F, E, z/ E,/ | 
(3A,A,A, A, z | 
(3CA,A, A, z | 
(3A,F,F, E, z/ E,/ | 
(3A,A,A, A, z | 
(3A,F,F,E,2 | 
(3E,C,C, A,, z/ A,,/ | 
(3E,E,E, E, z | 
(3E,C,C, C, z | 
(3C,C,C, A,, z | 
A,,3A,, | 
A,,2A,,2 | 
z4 | 
A,F, F,E,/ z/ | 
F,A,/A,/ A,A, | 
CA, A,/A, z/ | 
A,F, E, z | 
E,A,/A,/ A,/A,3/ | 
A,F,E,2 | 
E,C,/C,/ A,, z/ A,,/ | 
(3E,E,E, E, z | 
(3E,C,C, C, z | 
(3C,C,C, A,, z | 
A,,3A,, | 
A,,2A,, z |]  



